X: 1
T: Rainy Day, The
M: 4/4
L: 1/8
R: reel
K: Ador
EAAG ~A3B|cded cBAc|BG~G2 dG~G2|Bdgd edBG|
EAAG ~A3B|cBAB cdef|gbaf gedB|1 GBdB BAAG:|2 GBdB BAAd||
|:eaag eaag|edef gabg|dg~g2 a2ga|bgaf gedg|
eaag eaag|edef gaba|gedB GABd|1 gedB BAAd:|2 gedB BAAG||
